!!!COM: Palestrina, Giovanni Perluigi da
!!!OPR: Missa O magnum mysterium
!!!OMD: Credo
!!!OTL: Et unam sanctam
**kern	**kern	**kern	**kern	**kern
*Ibass	*Itenor	*Icalto	*Icalto	*Icant
!Bassus	!Tenor	!Altus 2	!Altus 1	!Cantus
*clefF4	*clefGv2	*clefG2	*clefG2	*clefG2
*k[]	*k[]	*k[]	*k[]	*k[]
*E:phr	*E:phr	*E:phr	*E:phr	*E:phr
*M3/2	*M3/2	*M3/2	*M3/2	*M3/2
=174	=174	=174	=174	=174
2F	2A	1c	2A	1a
2F	2A	.	2c	.
2E	2G	2r	2c	2r
=175	=175	=175	=175	=175
1D	2F	2f	2B-	1r
.	2D	2f	2A	.
2C#	2E	2e	2A	2r
=176	=176	=176	=176	=176
2D	2F	1d	2A	1r
2.BB-	2.D	.	2.G	.
.	.	2d	.	2r
4BB-	4D	.	4G	.
=177	=177	=177	=177	=177
1AA	1.E	4c	4A	2cc
.	.	4d	4B	.
.	.	4e	4c	2cc
.	.	4f	4d	.
2r	.	2g	2e	2b
=178	=178	=178	=178	=178
2r	1r	2e	2c	1a
2D	.	2f	2d	.
2E	2r	2e	2B	2g#
=179	=179	=179	=179	=179
2F	1r	2c	2.A	2a
2.D	.	2.d	.	2.f
.	.	.	4G	.
.	2r	.	4A	.
4D	.	4d	4B	4f
=180	=180	=180	=180	=180
1.C	2r	2G	2.c	1e
.	2c	2g	.	.
.	.	.	4d	.
.	2c	2g	2e	2r
=181	=181	=181	=181	=181
1r	2F	2f	2a	2cc
.	2A	2.e	2a	2cc
2r	2E	.	2g	2b
.	.	4e	.	.
=182	=182	=182	=182	=182
1r	1F	1c	2.f	2.a
.	.	.	4f	4a
2r	2C	2c	2e	2g
=183	=183	=183	=183	=183
1r	2F	1A	2c	2a
.	2D	.	2.d	2.f
2r	2D	2A	.	.
.	.	.	4d	4f
=184	=184	=184	=184	=184
2A	1r	2A	1c	1e
2A	.	2e	.	.
2G	2r	2e	2g	2r
=185	=185	=185	=185	=185
1F	2A	2f	1a	2cc
.	2A	2f	.	2cc
2G	2B	2d	2g	2b
=186	=186	=186	=186	=186
1A	2.c	2c	2.e	2.a
.	.	2.e	.	.
.	4c	.	4f	4a
2E	2B	.	2g	2g
.	.	4d	.	.
=187	=187	=187	=187	=187
1F	2A	2c	2a	2f
.	2A	2d	2a	2f
2G	2B	2d	2g	2d
*-	*-	*-	*-	*-
!!!CDT: 1525/^1526/-1594/2/2
!!!OCY: Italia
!!!AGN: Mass (Parody)
!!!AST: renaissance, vocal
!!!ASW: Motet 1569 (Palestrina)
!!!PWK: Masses, Book 4
!!!RNB: Cadence finals: A,C,G,F
!!!YOR: Le Opere Complete, v. 10, p. 150
!!!YOO: Rome, Italy: Fratelli Scalera
!!!END: 1992//
!!!EED: John Miller
!!!YEC: Copyright 2000, John Miller
!!!YEN: United States of America
!!!YEM: Rights to all derivative electronic formats reserved.
!!!YEM: Refer to licensing agreement for further details.
!!!YEM: This file must be accompanied by the licensing agreement.
!!!YEM: A copy of the licensing agreement may be found at http://www.music-cog.ohio-state.edu/HumdrumDatabases/Palestrina/license.txt
!!!EMD: converted to Humdrum by Bret Aarden
